packages/icons/svg/32/Pan.svg

<svg width="32" height="32" viewBox="0 0 32 32" fill="none" xmlns="http://www.w3.org/2000/svg">
<path d="M16 5.58582L19.7071 9.29292C20.0976 9.68345 20.0976 10.3166 19.7071 10.7071C19.3166 11.0977 18.6834 11.0977 18.2929 10.7071L17 9.41424V15L22.5858 15L21.2929 13.7071C20.9024 13.3166 20.9024 12.6835 21.2929 12.2929C21.6834 11.9024 22.3166 11.9024 22.7071 12.2929L26.4142 16L22.7071 19.7071C22.3166 20.0977 21.6834 20.0977 21.2929 19.7071C20.9024 19.3166 20.9024 18.6834 21.2929 18.2929L22.5858 17L17 17L17 22.5858L18.2929 21.2929C18.6834 20.9024 19.3166 20.9024 19.7071 21.2929C20.0976 21.6834 20.0976 22.3166 19.7071 22.7071L16 26.4142L12.2929 22.7071C11.9024 22.3166 11.9024 21.6834 12.2929 21.2929C12.6834 20.9024 13.3166 20.9024 13.7071 21.2929L15 22.5858V17L9.41421 17L10.7071 18.2929C11.0976 18.6834 11.0976 19.3166 10.7071 19.7071C10.3166 20.0977 9.68341 20.0977 9.29289 19.7071L5.58578 16L9.29289 12.2929C9.68342 11.9024 10.3166 11.9024 10.7071 12.2929C11.0976 12.6834 11.0976 13.3166 10.7071 13.7071L9.41421 15L15 15V9.41424L13.7071 10.7071C13.3166 11.0977 12.6834 11.0977 12.2929 10.7071C11.9024 10.3166 11.9024 9.68345 12.2929 9.29292L16 5.58582Z" fill="#858585"/>
</svg>

<svg width="32" height="32" fill="none" xmlns="http://www.w3.org/2000/svg" viewBox="0 0 32 32"><path d="M16 5.586l3.707 3.707a1 1 0 01-1.414 1.414L17 9.414V15h5.586l-1.293-1.293a1 1 0 011.414-1.414L26.414 16l-3.707 3.707a1 1 0 11-1.414-1.414L22.586 17H17v5.586l1.293-1.293a1 1 0 011.414 1.414L16 26.414l-3.707-3.707a1 1 0 011.414-1.414L15 22.586V17H9.414l1.293 1.293a1 1 0 01-1.414 1.414L5.586 16l3.707-3.707a1 1 0 011.414 1.414L9.414 15H15V9.414l-1.293 1.293a1 1 0 11-1.414-1.414L16 5.586z" fill="currentColor"></path></svg>
